X: 4
T: Captain Carswell
Z: Kenny
S: https://thesession.org/tunes/3512#setting16543
R: strathspey
M: 4/4
L: 1/8
K: Ador
A2 A*G A2 B*d | e>dB*d e2 d>B | G2 B*A B2 G>B | d>ed*B e2 d>B |A2 A*G A2 B*d | e>de*g e2 d>B | G>AB*e d>Be>d | B2 A2 A4 :|e>fe>d e2 a2 | g>ef>d e4 | d>BA>B d2 e>f | g>ef>d e2 d>B |e>fe>d e2 a2 | g>ef>d e2 d>B | G>AB*e d>Be>d | B2 A2 A4 :|A2 A>B A2 A>B | e>dB*d e2 d>B | G>AB*A B2 G>B | d>ed>B e2 d>B |1 A2 A>B A2 A>B | e>dB*d e2 d>B | G>AB*e d>Be>d | B2 A2 A4 :|2 A2 A>B A2 A>B | e>de*g e2 d>B | | G>AB*e d>Be>d | B2 A2 A4 |e>A A2 a>gf*a | g>ef>d e4 | B*dB>A G2 B*d | e>dBd e2 d>B |e>A A2 a>gf*a | g>ef>d e2 d>B | G>AB*e d>Be>d | B2 A2 A4 |e>A A2 a>gf*a | g>ef>d e4 | B*dB>A G2 B*d | e>de*g e2 d>B |A2 A>B B2 A>B | Be>e>d e2 d>B | G>AB*e d>Be>d | B2 A2 A4 |
